X:198
T:Green Mountain Petronella
M:4/4
L:1/8
K:G
|: "G"D2 G2 GFGE  | D2 B2 BGAB | "Am"cBcB ABcd | "D7"e2 d2 d^c d2 |
"G"D2 G2 GFGE | D2 B2 BGAB | "Am"cBcA "D7"DEFG | A2 GF "G"G4 :|
|:  "G"g2 g2 "D7"f2 f2 | "C"efge "G"d4 | "C"edef gfgd | "D7"B2A2 DFAd|
"Em"g2 g2 "D7"f2 f2 | "A7"efge "D7"d4 | "C"edef gfgd | "D7"B2 G2 "G"G4 :
|
